X:665
%%etbk:tnset id:427,pos:2,rep:3x,ant:
%%etbk:wsite https://thesession.org/tunes/900
%%etbk:video src:ytube,cde:Swa_LUAm1Hw,desc:third tune
%%etbk:pldat 2016-09-16T15:45,2016-09-10T15:33,2016-09-07T17:42,2016-08-05T16:52,2016-07-21T19:40,2016-07-12T17:12,2016-07-07T16:28,2016-06-18T16:52,2016-06-16T19:28,2016-05-30T19:23,2016-05-29T14:51,2016-05-26T19:05,2016-05-25T15:53,2016-05-23T19:09,2016-05-16T15:59,2016-05-15T15:59,2016-05-14T17:49,2016-05-11T17:36,2016-04-11T18:05,2016-03-21T18:48,2016-03-20T14:44,2016-03-16T17:47,2016-03-14T18:58,2016-01-12T18:27,2016-01-10T13:51,2016-01-04T19:09,2015-12-27T14:16,2015-12-16T18:17,2015-12-13T16:35,2015-12-01T16:59,2015-11-29T14:06,2015-11-28T16:21,2015-11-26T18:55,2015-11-25T16:35,2015-11-24T18:11,2015-10-21T17:57,2015-10-20T17:58,2015-10-17T15:26,2015-10-13T17:34,2015-10-12T19:00,2015-09-29T17:08,2015-08-30T16:39,2015-08-18T17:18,2015-08-17T18:53,2015-08-13T18:08,2015-08-09T14:53,2015-08-04T17:43,2015-08-01T17:24,2015-07-30T19:27,2015-07-29T18:02,2015-07-27T19:24,2015-07-25T14:37,2015-07-22T17:39,2015-07-20T19:06,2015-07-18T15:57,2015-07-17T12:02,2015-05-10T14:48,2015-05-02T16:46,2015-04-25T16:34,2015-04-20T18:20,2015-04-20T18:17,2015-04-15T17:16,2015-04-04T14:24
T: The Scartaglen
Z: Piano Box Version by Martin Fleischmann
H: Created 2015-03-30 /  Last Modified 2015-07-18
R: reel
M: 4/4
L: 1/8
K: Dmaj
|:"D"!1!D!3!FEF D2!5!d!4!B | "A"!5!c!3!AAG !1!E!3!FFE | "D"DFEF D2dB | "A"cAG!1!E "D"!2!E!1!DD2| 
"D"DFEF D2dB | "A"cAAG EFGE | "D"!2!A!4!d!3!dc !1!d!3!fed | "A"!4!c!2!A!1!G!2!E "D"EDD2 :|
|:"D"!3!f3e fage |  !3!f2df afde | effe fage | "A"!3!fd!4!ec "D"!1!A!3!d!1!de | 
"D"!3!f2fe fage |  !3!f2df afde |!3!fage !1!dfe!1!d |1 "A"!4!cAGE "D"EDD2 :|2 "A"cAGE "D"EFFE || "last time" D4z4 ||


